Yaru++/emblems/16/emblem-urgent.svg

<svg id="svg10" height="16" width="16" xmlns="http://www.w3.org/2000/svg">
  <rect id="rect2" fill="#3d3d3d" height="15" rx="7.5" transform="matrix(0 -1 -1 0 0 0)" width="15" x="-15.5" y="-15.5"/>
  <path id="rect822" d="m8 .5c-4.155 0-7.5 3.345-7.5 7.5 0 .084349.008983.16634.0117188.25.13203025-4.0374083 3.4176301-7.25 7.4882812-7.25 4.070651 0 7.356251 3.2125917 7.488281 7.25.002736-.08366.011719-.1656511.011719-.25 0-4.155-3.345-7.5-7.5-7.5z" fill="#fff" opacity=".3"/>
  <path id="path827" d="m8 15.5c4.155 0 7.5-3.345 7.5-7.5 0-.08435-.009-.16634-.01172-.25-.132029 4.037408-3.417629 7.25-7.48828 7.25s-7.356251-3.212592-7.488281-7.25c-.00274.08366-.011719.165651-.011719.25 0 4.155 3.345 7.5 7.5 7.5z" opacity=".2"/>
  <g id="g962" enable-background="new" stroke-width="2.068938" transform="matrix(.39219006 0 0 .39404789 -126.38126 -24.831267)">
    <path id="path956" d="m334.52482 78.927318 8.13828 4.698642 14.33225-8.274728" fill="none" stroke="#f1f0e9" stroke-width="3.310302"/>
    <circle id="circle958" cx="342.66309" cy="83.625961" fill="#f22c42" r="2"/>
    <path id="path960" d="m342.6631 79.62596v18.05" fill="none" stroke="#f22c42" stroke-width="2.482726"/>
  </g>
</svg>

<?xml version="1.0" encoding="UTF-8" standalone="no"?>
<svg
   xmlns:dc="http://purl.org/dc/elements/1.1/"
   xmlns:cc="http://creativecommons.org/ns#"
   xmlns:rdf="http://www.w3.org/1999/02/22-rdf-syntax-ns#"
   xmlns:svg="http://www.w3.org/2000/svg"
   xmlns="http://www.w3.org/2000/svg"
   xmlns:sodipodi="http://sodipodi.sourceforge.net/DTD/sodipodi-0.dtd"
   xmlns:inkscape="http://www.inkscape.org/namespaces/inkscape"
   height="16"
   width="16"
   version="1.1"
   id="svg10"
   sodipodi:docname="emblem-urgent.svg"
   inkscape:version="0.92.5 (2060ec1f9f, 2020-04-08)">
  <metadata
     id="metadata16">
    <rdf:RDF>
      <cc:Work
         rdf:about="">
        <dc:format>image/svg+xml</dc:format>
        <dc:type
           rdf:resource="http://purl.org/dc/dcmitype/StillImage" />
        <dc:title></dc:title>
      </cc:Work>
    </rdf:RDF>
  </metadata>
  <defs
     id="defs14" />
  <sodipodi:namedview
     pagecolor="#ffffff"
     bordercolor="#666666"
     borderopacity="1"
     objecttolerance="10"
     gridtolerance="10"
     guidetolerance="10"
     inkscape:pageopacity="0"
     inkscape:pageshadow="2"
     inkscape:window-width="1920"
     inkscape:window-height="1016"
     id="namedview12"
     showgrid="false"
     inkscape:zoom="14.75"
     inkscape:cx="-4.2033898"
     inkscape:cy="8"
     inkscape:window-x="0"
     inkscape:window-y="27"
     inkscape:window-maximized="1"
     inkscape:current-layer="svg10" />
  <rect
     fill="#9b33ae"
     height="15"
     rx="7.5"
     transform="matrix(0 -1 -1 0 0 0)"
     width="15"
     x="-15.5"
     y="-15.5"
     id="rect2"
     style="fill:#3d3d3d;fill-opacity:1" />
  <g
     id="g838">
    <path
       inkscape:connector-curvature="0"
       d="M 8,0.5 C 3.845,0.5 0.5,3.845 0.5,8 0.5,8.084349 0.508983,8.16634 0.5117188,8.25 0.64374905,4.2125917 3.9293489,1 8,1 12.070651,1 15.356251,4.2125917 15.488281,8.25 15.491017,8.16634 15.5,8.0843489 15.5,8 15.5,3.845 12.155,0.5 8,0.5 Z"
       id="rect822"
       style="opacity:0.3;fill:#ffffff;fill-opacity:1" />
    <path
       style="opacity:0.2;fill:#000000;fill-opacity:1"
       id="path827"
       d="m 8,15.5 c 4.155,0 7.5,-3.345 7.5,-7.5 C 15.5,7.91565 15.491,7.83366 15.48828,7.75 15.356251,11.787408 12.070651,15 8,15 3.929349,15 0.643749,11.787408 0.511719,7.75 0.508979,7.83366 0.5,7.915651 0.5,8 c 0,4.155 3.345,7.5 7.5,7.5 z"
       inkscape:connector-curvature="0" />
  </g>
  <g
     id="g962"
     transform="matrix(0.39219006,0,0,0.39404789,-126.38126,-24.831267)"
     style="display:inline;stroke-width:2.06893849;enable-background:new">
    <path
       inkscape:transform-center-y="-31.112701"
       inkscape:transform-center-x="53.888775"
       sodipodi:nodetypes="ccc"
       inkscape:connector-curvature="0"
       id="path956"
       d="m 334.52482,78.927318 8.13828,4.698642 14.33225,-8.274728"
       style="color:#000000;display:inline;overflow:visible;visibility:visible;opacity:1;fill:none;fill-opacity:1;fill-rule:nonzero;stroke:#f1f0e9;stroke-width:3.31030154;stroke-linecap:butt;stroke-linejoin:miter;stroke-miterlimit:4;stroke-dasharray:none;stroke-dashoffset:0;stroke-opacity:1;marker:none;enable-background:accumulate" />
    <circle
       r="2"
       cy="83.625961"
       cx="342.66309"
       id="circle958"
       style="color:#000000;display:inline;overflow:visible;visibility:visible;opacity:1;fill:#f22c42;fill-opacity:1;fill-rule:nonzero;stroke:none;stroke-width:3.31030154;stroke-linecap:butt;stroke-linejoin:miter;stroke-miterlimit:4;stroke-dasharray:none;stroke-dashoffset:0;stroke-opacity:1;marker:none;enable-background:accumulate" />
    <path
       sodipodi:nodetypes="cc"
       inkscape:connector-curvature="0"
       id="path960"
       d="m 342.6631,79.62596 v 18.05"
       style="color:#000000;display:inline;overflow:visible;visibility:visible;opacity:1;fill:none;fill-opacity:1;fill-rule:nonzero;stroke:#f22c42;stroke-width:2.48272634;stroke-linecap:butt;stroke-linejoin:miter;stroke-miterlimit:4;stroke-dasharray:none;stroke-dashoffset:0;stroke-opacity:1;marker:none;enable-background:accumulate" />
  </g>
</svg>
